!!!COM: Giovannelli, Ruggero
!!!CDT: ~1560///-1625/01/07/
!!!OTL: Sanctissima Maria
!!!OTL2: Baciatemi
!!!ONM: No. 12
!!!SMS: Musica tolta da i madrigali di Claudio Monteverdi, e d'altri autori, e fatta spirituale
!!!PPR: A. Coppini, ed.
!!!PPP: Milan
!!!PDT: 1607
!!!URL: http://www.jpj.dk/coppini.htm
!!!AIN: contrafacta
**kern	**kern	**kern	**kern	**kern
*staff5	*staff4	*staff3	*staff2	*staff1
*Ivox	*Ivox	*Ivox	*Ivox	*Ivox
!basso	!tenore	!alto	!quinto	!canto
*clefF4	*clefG2	*clefG2	*clefG2	*clefG2
*k[b-]	*k[b-]	*k[b-]	*k[b-]	*k[b-]
*M4/4	*M4/4	*M4/4	*M4/4	*M4/4
*MM120	*MM120	*MM120	*MM120	*MM120
=1-	=1-	=1-	=1-	=1-
1r	1r	2g/	2r	1r
.	.	4.b-\	2g/	.
.	.	8a/	.	.
=2	=2	=2	=2	=2
1r	1r	2g/	4.b-\	2dd\
.	.	.	8b-\	.
.	.	2d/	4a/	4.ff\
.	.	.	4b-\	.
.	.	.	.	8ee\
=3	=3	=3	=3	=3
1r	1r	1f	4a/	4dd\
.	.	.	2b-\	4dd\
.	.	.	.	2cc\
.	.	.	4a/	.
=4	=4	=4	=4	=4
1r	2r	2B-/	2b-\	2dd\
.	2b-\	2b-\	2dd\	2ff\
=5	=5	=5	=5	=5
1r	4ff\	4a/	4cc\	4ff\
.	4dd\	4b-\	4dd\	4ff\
.	4ee-\	4g/	4b-\	4ee-\
.	4cc\	4g/	4cc\	4ee-\
=6	=6	=6	=6	=6
1r	2dd\	2f#/	2a/	2dd\
.	2dd\	2f#/	4a/	2dd\
.	.	.	4a/	.
=7	=7	=7	=7	=7
1r	2dd\	2r	4b-\	4r
.	.	.	4a/	4a/
.	2dd\	4r	[2dd\	4b-\
.	.	4a/	.	4a/
=8	=8	=8	=8	=8
1r	2dd\	4b-\	4dd\]	2dd\
.	.	4a/	4cc\	.
.	2dd\	4dd\	4b-\	2dd\
.	.	8cc\L	8a/L	.
.	.	8b-\J	8g/J	.
=9	=9	=9	=9	=9
1r	2dd\	4a/	4f#/	1dd
.	.	2g/	4g/	.
.	2dd\	.	2a/	.
.	.	4f#/	.	.
=10	=10	=10	=10	=10
1r	2g/	4g/	4b-\	2dd\
.	.	4g/	4b-\	.
.	2g/	4.b-\	4.dd\	4r
.	.	.	.	4b-\
.	.	8a/	8cc\	.
=11	=11	=11	=11	=11
2G\	4.b-\	4g/	4b-\	4.dd\
.	.	4g/	4b-\	.
.	8a/	.	.	8cc\
4.B-\	2g/	2g/	4.dd\	4b-\
.	.	.	.	4b-\
8A\	.	.	8cc\	.
=12	=12	=12	=12	=12
2G\	4r	2g/	4b-\	4.dd\
.	4dd\	.	4b-\	.
.	.	.	.	8dd\
2D\	4.ff\	2r	4.a/	4dd\
.	.	.	.	4ff\
.	8ee\	.	8g/	.
=13	=13	=13	=13	=13
1F	4dd\	4r	4a/	1ff
.	4dd\	4f/	2b-\	.
.	2cc\	2f/	.	.
.	.	.	4a/	.
=14	=14	=14	=14	=14
2BB-/	2b-\	2f/	2b-\	2dd\
2BB-/	2b-\	2f/	2dd\	4r
.	.	.	.	4ff\
=15	=15	=15	=15	=15
4F\	4a/	4f/	4cc\	4ff\
4D\	4b-\	4f/	4dd\	4ff\
4E-\	4g/	4g/	4b-\	4ee-\
4C/	4g/	4g/	4cc\	4ee-\
=16	=16	=16	=16	=16
2D\	1dd	2f#/	2a/	2dd\
4D\	.	2f#/	4a/	2dd\
4D\	.	.	4a/	.
=17	=17	=17	=17	=17
2D\	1dd	2r	4b-\	4r
.	.	.	4a/	4a/
2D\	.	4r	2dd\	4b-\
.	.	4a/	.	4a/
=18	=18	=18	=18	=18
2D\	4r	4b-\	2d/	2dd\
.	4a/	4a/	.	.
2D\	4b-\	4dd\	[2f/	2dd\
.	4a/	4cc\	.	.
=19	=19	=19	=19	=19
1D	4dd\	8b-/L	4f/]	1dd
.	.	8a/J	.	.
.	4b-\	2g/	4g/	.
.	2a/	.	2a/	.
.	.	4f#/	.	.
=20	=20	=20	=20	=20
2G\	2g/	1g	1bn	2dd\
2G\	4r	.	.	2dd\
.	4dd\	.	.	.
=21	=21	=21	=21	=21
4B-\	4dd\	1r	1r	4dd\
4B-\	4dd\	.	.	4dd\
4A\	4ee\	.	.	4cc\
4A\	4ff\	.	.	4cc\
=22	=22	=22	=22	=22
2G\	2gg\	4r	4r	2b-\
.	.	4g/	4dd\	.
2G\	4dd\	4b-\	4dd\	2g/
.	4dd\	4b-\	4dd\	.
=23	=23	=23	=23	=23
2r	8cc\	4a/	4.ee\	1r
.	8cc\	.	.	.
.	8cc\	4a/	.	.
.	8cc\	.	8ff\	.
2G\	8b-\	4g/	2gg\	.
.	8b-\	.	.	.
.	8b-\	4g/	.	.
.	8b-\	.	.	.
=24	=24	=24	=24	=24
8F\	2a/	4r	2cc\	2r
8F\	.	.	.	.
8F\	.	4f/	.	.
8F\	.	.	.	.
8E\	2g/	4g/	2r	2gg\
8E\	.	.	.	.
8E\	.	4g/	.	.
8E\	.	.	.	.
=25	=25	=25	=25	=25
2D\	1r	4.a/	2r	8ff\
.	.	.	.	8ff\
.	.	.	.	8ff\
.	.	8b-\	.	8ff\
2C/	.	2cc\	2gg\	8ee\
.	.	.	.	8ee\
.	.	.	.	8ee\
.	.	.	.	8ee\
=26	=26	=26	=26	=26
1r	2r	4f/	8ff\	2dd\
.	.	.	8ff\	.
.	.	4d/	8ff\	.
.	.	.	8ff\	.
.	2cc\	8g/	8ee\	2cc\
.	.	8g/	8ee\	.
.	.	8g/	8ee\	.
.	.	8a/	8ee\	.
=27	=27	=27	=27	=27
4r	8b-\	8b-\	2.dd\	1r
.	8b-\	8b-\	.	.
4G\	8b-\	8g/	.	.
.	8b-\	8g/	.	.
8F\	8a/	4a/	.	.
8F\	8a/	.	.	.
8F\	8a/	4a/	4cc\	.
8F\	8a/	.	.	.
=28	=28	=28	=28	=28
8E-\	4g/	4r	4r	4.b-\
8E-\	.	.	.	.
8E-\	4g/	4g/	4gg\	.
8E-\	.	.	.	8cc\
2D\	4r	8a/	8ff\	2dd\
.	.	8a/	8ff\	.
.	[4dd\	8a/	8ff\	.
.	.	8g/	8ee\	.
=29	=29	=29	=29	=29
1D	4dd\]	8f/	8dd\	1dd
.	.	8e/	8cc\	.
.	4dd\	8d/	8b-\	.
.	.	8e/	8b-\	.
.	2dd\	2f#/	2a/	.
=30	=30	=30	=30	=30
1r	1g	1g	1bn	1r
=31	=31	=31	=31	=31
1r	4gg\	4b-\	4dd\	4gg\
.	4gg\	4b-\	4dd\	4gg\
.	2gg\	2b-\	2dd\	2gg\
=32	=32	=32	=32	=32
1r	4dd\	4a/	4dd\	4ff\
.	4gg\	4b-\	4b-\	4dd\
.	4.ff\	4.a/	4.cc\	4.ff\
.	8ee\	8g/	8cc\	8gg\
=33	=33	=33	=33	=33
1r	4ff\	4a/	4cc\	4ff\
.	4gg\	4b-\	4b-\	4dd\
.	2ff\	2a/	2cc\	2ff\
=34	=34	=34	=34	=34
1r	2ff\	2a/	2cc\	2ff\
.	4r	4r	4r	4r
.	4f/	4a/	4cc\	4ff\
=35	=35	=35	=35	=35
1r	4f/	4a/	4cc\	4ff\
.	4f/	4a/	4cc\	4ff\
.	4g/	4.g/	4b-\	4ee\
.	4g/	.	4b-\	4dd\
.	.	8f/	.	.
=36	=36	=36	=36	=36
1r	4a/	4e/	4a/	4cc\
.	4f/	4a/	4a/	4ff\
.	4g/	[2g/	4b-\	4dd\
.	4g/	.	4b-\	4ee\
=37	=37	=37	=37	=37
1r	1a	4g/]	1a	4cc#\
.	.	4f/	.	2dd\
.	.	2e/	.	.
.	.	.	.	4cc#\
=38	=38	=38	=38	=38
2r	1dd	2d/	2a/	2dd\
4r	.	4r	4r	4r
4BB-/	.	4b-\	4ff\	4dd\
=39	=39	=39	=39	=39
4BB-/	1r	4b-\	4ff\	4dd\
4BB-/	.	4b-\	4ff\	4dd\
4C/	.	4g/	4ee-\	4.cc\
4C/	.	4a/	4ee-\	.
.	.	.	.	8b-\
=40	=40	=40	=40	=40
4D\	1r	4f/	4dd\	4a/
4BB-/	.	4f/	4dd\	4b-\
4C/	.	4e-/	[2cc\	4g/
4C/	.	4e-/	.	4a/
=41	=41	=41	=41	=41
1D	1r	1d	4cc\]	4f#/
.	.	.	4b-\	2g/
.	.	.	2a/	.
.	.	.	.	4f#/
=42	=42	=42	=42	=42
2G\	2r	2d/	2g/	1g
4G\	4dd\	4g/	4b-\	.
4G\	4dd\	4g/	4b-\	.
=43	=43	=43	=43	=43
2G\	2dd\	2g/	2b-\	1r
4D\	4dd\	4f/	4a/	.
4G\	4dd\	4g/	4b-\	.
=44	=44	=44	=44	=44
4.F\	4.ff\	4.a/	4.cc\	1r
8E\	8gg\	8g/	8cc\	.
4F\	4ff\	4a/	4cc\	.
4G\	4dd\	4b-\	4b-\	.
=45	=45	=45	=45	=45
2F\	2ff\	2a/	2cc\	2r
4F\	2ff\	4a/	4cc\	4r
4F\	.	4a/	4cc\	4ff\
=46	=46	=46	=46	=46
4F\	1r	4a/	4cc\	4ff\
4F\	.	4a/	4cc\	4ff\
4G\	.	4.g/	4b-\	4ee\
4G\	.	.	4b-\	4dd\
.	.	8f/	.	.
=47	=47	=47	=47	=47
4A\	1r	4e/	4a/	4cc\
4F\	.	4a/	4a/	4ff\
4G\	.	[2g/	4b-\	4dd\
4G\	.	.	4b-\	4ee\
=48	=48	=48	=48	=48
1A	1r	4g/]	1a	4cc#\
.	.	4f/	.	2dd\
.	.	2e/	.	.
.	.	.	.	4cc#\
=49	=49	=49	=49	=49
2D\	2r	2d/	2a/	2dd\
2r	4r	4r	4r	4r
.	4b-\	4b-\	4ff\	4dd\
=50	=50	=50	=50	=50
1r	4b-\	4b-\	4ff\	4dd\
.	4b-\	4b-\	4ff\	4dd\
.	4cc\	4g/	4ee-\	4.cc\
.	4cc\	4a/	4ee-\	.
.	.	.	.	8b-\
=51	=51	=51	=51	=51
1r	4dd\	4f/	4dd\	4a/
.	4b-\	4b-\	4dd\	4dd\
.	4cc\	4g/	4ee-\	[2cc\
.	4cc\	4a/	4ee-\	.
=52	=52	=52	=52	=52
1r	1dd	4f#/	1dd	4cc\]
.	.	2g/	.	4b-\
.	.	.	.	2a/
.	.	4f#/	.	.
=53	=53	=53	=53	=53
2r	2g/	2g/	2dd\	2g/
4r	4r	4r	4r	4r
4BB-/	4dd\	4b-\	4b-\	4dd\
=54	=54	=54	=54	=54
4BB-/	4dd\	4b-\	4dd\	4ff\
4BB-/	4dd\	4b-\	4dd\	4ff\
4C/	4g/	4g/	4.cc\	4ee-\
4C/	4g/	4g/	.	4ee-\
.	.	.	8b-\	.
=55	=55	=55	=55	=55
4D\	4dd\	4f/	4a/	4dd\
4BB-/	4dd\	4b-\	4dd\	4dd\
4C/	4g/	4g/	[2cc\	4ee-\
4C/	4g/	4g/	.	4ee-\
=56	=56	=56	=56	=56
1D	1dd	4f#/	4cc\]	1dd
.	.	2g/	4b-\	.
.	.	.	2a/	.
.	.	4f#/	.	.
=57	=57	=57	=57	=57
1G;	1dd;	1g;	1bn;	1dd;
==	==	==	==	==
*-	*-	*-	*-	*-
!!!ENC: Craig Stuart Sapp
!!!END: 2004/12/10/
